X:1
T:Title
%%score ( 1 2 ) { 3 | 4 }
L:1/8
Q:1/4=100
M:4/4
K:Ab
V:1 treble nm="Grand Piano, Soprano"
V:2 treble 
V:3 bass nm="Choir Pad, Bass"
V:4 bass 
V:1
 [Ec]>[DB] [CA]>[DB] [Ec]2 [Ec]2 | [Ed]>[Ee] [Ed]>[Ec] [EB]4 | [EB]>[EA] [EG]>[EA] [EB]2 [EB]2 | %3
w: By~Adam~Geibel * * * * *|||
 [Ec]>[Fd] [Ec]>[DB] [CA]4 | [Ec]>[DB] [CA]>[DB] [Ec]2 [Ec]2 | [Fd]>[Fe] [Fd]>[Ec] [DB]4 | %6
w: |||
 B>A G>F E>F G>A | [Ac]2 [GB]2 [EA]4 | e6 z2 | z2 d4 z2 | d6 z2 | c6 z2 | %12
w: ||||||
 [=Ec]>[EB] [EA]>[EG] [FA]2 [FA]2 | [=DB]>[DA] [DG]>[DF] [EG]4 | %14
w: ||
 [EA]>[EA] [EB]>[EB] [Ec]>[_Gc] [Fd]>[Af] | [Ae]2 [EG]2 [EA]4- | [EA]4 z4 |] %17
w: |||
V:2
 x8 | x8 | x8 | x8 | x8 | x8 | x8 | x8 | E>E E>E E>A [EB]>c | [Gd]>G G>G G2 z2 | %10
 G>G G>G G>B [Ec]>d | E>E E>E E2 z2 | x8 | x8 | x8 | x8 | x8 |] %17
V:3
 A,>A, A,>A, A,2 A,2 | B,>C B,>A, G,4 | G,>F, E,>F, G,2 G,2 | A,>A, A,>A, E,4 | %4
 A,>A, A,>A, A,2 =A,2 | B,>B, B,>B, F,4 | B,>A, G,>F, E,>F, G,>A, | E2 D2 C4 | C>C C>C C2 C2 | %9
 B,>B, B,>B, B,2 z2 | B,>B, B,>B, B,2 G,2 | A,>A, A,>A, A,2 z2 | G,>G, C>C C2 C2 | %13
 B,>B, B,>B, B,4 | A,>A, G,>G, A,>A, A,>[K:treble]D | C2 D2 C4- | C4 z4 |] %17
V:4
 A,,>A,, A,,>A,, A,,2 A,,2 | E,>E, E,>E, E,4 | E,>E, z z/ E,/ E,2 E,2 | A,,>A,, A,,>A,, A,,4 | %4
 A,,>A,, A,,>A,, A,,2 F,2 | B,,>B,, B,,>B,, B,,4 | z8 | E,2 E,2 A,,4 | A,>A, A,>A, A,2 A,2 | %9
 E,>E, E,>E, E,2 z2 | E,>E, E,>E, E,2 E,2 | A,,>A,, A,,>A,, A,,2 z2 | C,>C, C,>C, F,2 F,2 | %13
 B,,>B,, B,,>B,, E,2 D,2 | C,>C, E,>E, z2 D,>D, | E,2 E,2 A,,4- | A,,4 z4 |] %17

